X:176
%%etbk:tnset id:56,pos:7,rep:3x,ant:
%%etbk:tnset id:264,pos:5,rep:3x-Stop,ant:
%%etbk:wsite http://www.thesession.org/tunes/display/472
%%etbk:pldat 2016-06-23T19:13,2016-06-22T15:24,2016-06-20T18:09,2016-06-18T15:44,2016-05-05T14:13,2016-05-04T16:25,2016-05-03T16:02,2016-03-11T16:15,2016-03-09T17:41,2016-03-08T15:34,2016-03-05T14:06,2016-02-16T17:28,2015-11-04T16:28,2015-10-29T18:39,2015-10-27T17:05,2015-10-25T14:17,2015-10-21T16:43,2015-10-14T17:51,2015-10-06T15:21,2015-09-09T17:28,2015-06-26T17:26,2015-06-23T18:11,2015-06-22T18:01,2015-05-28T18:59,2015-04-22T16:45,2015-03-12T18:32,2015-03-09T19:04,2015-03-04T17:57,2015-02-17T18:13,2015-02-14T12:48,2015-01-29T18:16,2014-11-05T19:06,2014-11-04T16:53,2014-11-02T14:03,2014-10-28T17:07,2014-10-19T15:11,2014-08-21T18:41,2014-08-20T18:15,2014-08-18T18:10,2014-06-25T15:34,2014-06-24T18:47,2014-06-11T16:29,2014-06-05T18:07,2014-03-05T19:21,2014-03-02T16:46,2014-02-24T18:03,2014-02-18T17:16,2013-10-30T16:08,2013-10-28T18:59,2013-10-23T18:11,2013-10-17T19:10,2013-10-13T16:05,2013-10-09T15:30,2013-10-04T15:58,2013-08-29T16:14
T: Hunter's House, The
Z: Piano Box Version by Martin Fleischmann
H: Created 2013-02-19 /  Last Modified 2013-02-19
M: 4/4
L: 1/8
R: reel
K: Gmaj
|: "G"!2!B2!4!dB "D"!3!c!1!A!2!F!4!A | "G"!3!G2!5!BG !1!D!3!G!5!B!1!G | !2!B!4!ddB "D"!3!c!1!A!2!F!4!A | "G"!3!GBAG !2!FG!1!E!2!F | 
"G"!1!D!3!G!2!G!3!G !5!B!3!G!2!G!3!G | !5!B2!4!A!2!F !1!GAB!4!c | "D"!1!defg !5!agf!1!d | !3!c!1!A!2!F!4!A "G"!3!!1!G4 :|
|: "G"!1!B2!4!gB !5!aB!4!gB | !3!(3B!2!B!1!B !4!gf !2!e!1!d!3!cB | "D"!1!A2!4!aa !5!b!4!aa!3!f | !1!d!3!f!5!af !4!gfe!1!d |
"G"!1!B2!4!gB !5!aB!4!gB | !2!B!1!B!4!gf !2!e!1!d!3!cB | "D"!3!cB!1!A!4!g !3!fgaf | "G"!4!g!1!d!2!B!4!d "D"!3!c!1!A!2!F!1!A :|


